X:1
T:Timișoara,12.12.12.12
T:Timișoara,12.12.12.12
T:Andrew Linnaeus Byers, 1897
T:Public Domain Courtesy of the Cyber Hymnal™
C:Andrew Linnaeus Byers, 1897
Z:Public Domain
Z:Courtesy of the Cyber Hymnal™
%%score ( 1 2 ) ( 3 4 )
L:1/8
Q:1/4=97
M:3/4
K:Eb
V:1 treble 
V:2 treble 
V:3 bass 
V:4 bass 
V:1
 (EF) | [EG]3 [EG] [DF][FA] | [EG]2 [B,E]2 [EG]2 | [DF]3 [DF] [CE][DF] | [EG]4 ([EG][FA]) | %5
 [GB]3 [GB] [GB][GB] | [Ac]2 [GB]2 [EG]2 | [DF]3 [DB] [EB][E=A] | [DB]4 (EF) | %9
 [EG]3 [EG] [DB][FA] | [EG]2 [B,E]2 [_DE]2 | [CE]3 [CE] [CA][EB] | [Ec]4 [EB]2 | %13
 [Ge]3 [Ge] [Bd][Ac] | [GB]2 [EG]2 (EG) | [EG][DF] [DA]3 [B,D] | [B,E]4 |] %17
V:2
 E2 | x6 | x6 | x6 | x6 | x6 | x6 | x6 | x4 E2 | x6 | x6 | x6 | x6 | x6 | x4 E2 | x6 | x4 |] %17
V:3
 (G,A,) | [E,B,]3 [E,B,] [B,,B,][B,,B,] | [E,B,]2 [E,G,]2 [E,B,]2 | %3
 [B,,B,]3 [B,,B,] [B,,B,][B,,B,] | [E,B,]4 [E,B,]2 | [E,E]3 [E,E] [E,E][E,E] | %6
 [E,E]2 [E,E]2 [E,B,]2 | [F,B,]3 [F,B,] [F,C][F,C] | [B,,B,]4 (G,A,) | %9
 [E,B,]3 [E,B,] [B,,B,][B,,B,] | [E,B,]2 [E,G,]2 [E,G,]2 | [A,,A,]3 [A,,A,] [A,,A,][A,,A,] | %12
 [A,,A,]4 [E,G,]2 | [E,B,]3 [E,B,] [E,C][E,D] | [E,E]2 [E,B,]2 (G,B,) | %15
 [B,,B,][B,,B,] [B,,B,]3 [B,,B,] | [E,G,]4 |] %17
V:4
 E,2 | x6 | x6 | x6 | x6 | x6 | x6 | x6 | x4 E,2 | x6 | x6 | x6 | x6 | x6 | x4 E,2 | x6 | x4 |] %17

